X:49
T:49 Untitled Polka
C:Welch MS
I:abc2nwc
M:2/4
L:1/16
K:C
G2|G2c2c2d2|e3dc2B2|A2d2d2e2|f2d2d2B2|G2c2c2d2|e2d2c2B2|ce3Bd3|c4z2:|
g2|a2g2e2g2|a2g2e2g2|f2e2d2c2|d4d2d2|ec3dB3|cA3G2G2|Ac3Bd3|c4z2:|
c'2|b2a2g2f2|e2d2c2c'2|b2a2g2f2|e2d2c2c'2|a2f2d2b2|g2e2c2c'2|a2f2d2b2|c'4z2:|

